source/img/sprite/star.svg

<svg width="16" height="14" viewBox="0 0 16 14" fill="none" xmlns="http://www.w3.org/2000/svg">
<path fill-rule="evenodd" clip-rule="evenodd" d="M7.63441 9.54841L10.8153 11.3073L9.97596 7.99895L12.6574 5.86844L9.11688 5.58989L7.63441 2.38311L6.15197 5.58989L2.61141 5.86844L5.29286 7.99895L4.45356 11.3073L7.63441 9.54841ZM2.91634 13.3L4.16458 8.37971L0 5.0708L5.48992 4.63889L7.63441 0L9.77893 4.63889L15.2688 5.0708L11.1042 8.37971L12.3525 13.3L7.63441 10.6911L2.91634 13.3Z" fill="white"/>
</svg>

<svg viewBox="0 0 16 14" fill="none" xmlns="http://www.w3.org/2000/svg"><path fill-rule="evenodd" clip-rule="evenodd" d="m7.63 9.55 3.19 1.76-.84-3.31 2.68-2.13-3.54-.28-1.49-3.2-1.48 3.2-3.54.28 2.68 2.13-.84 3.3 3.18-1.75Zm-4.71 3.75 1.24-4.92-4.16-3.3 5.49-.44 2.14-4.64 2.15 4.64 5.49.43-4.17 3.31 1.25 4.92-4.72-2.6-4.71 2.6Z" fill="#fff"/></svg>
